X:1
T:Untitled in 4/4 . SenH.143
T:Untitled in 4/4 . SenH.143
T:in Hand D (different handwriting)
C:in Hand D
C:(different handwriting)
L:1/8
Q:1/4=100
M:4/4
K:F
V:1 treble 
V:1
 z8"^4 bars rest" | z4 z2 d gggg | g^f z d bbbb | (ba) z d' g^fga | ^f2 ga bc' b(a/g/) | g2 z2 z4 | %6
 z8 | z8 | z8 | z4 z2 z d | aaaa ag z g | c'c'c'c' c'b z b | e'e'e'e' e'd' z c' | %13
 b(a/4b/4c'/) ag/ g2 z2 z b | _e'c' =bc'/ c4 | c'4- c'3 (c'/4d'/4_e') | d'(c'/b/) ab/ b2 z2 | %17
 z4 z2 z a | bbbb ba z d' | d'd'd'd' d'c' z c' | ff bb ba z a | gg c'2- c'2 b2 | %22
 a2 d'2- d'^c' z a | d'e'/^c'd' d'2 z2 | z8 | z a b3 c'aa/ | bf z c' d'bgb | af c'3 d' bb/ | %28
 c'c' z d'_e'c' ad' | b2 b2 a2 d'b | g2 c'b ab/ ba | b2 b2 b2 a2 | g2 c'2- c'2 b2 | %33
 ba z2 z a d'2- | d'g c'2- c'b/c'/ ag/ | g4 z4 | z8 | z8 | z8 | z8 |] %40

